assets/svg/icon_button_ice_stroke.svg

<svg width="24" height="24" viewBox="0 0 24 24" fill="none" xmlns="http://www.w3.org/2000/svg">
<path d="M12.0149 10.2881C11.7392 10.2881 11.4974 10.1085 11.4105 9.84234L10.2652 6.33017C10.2207 6.19384 10.2228 6.04885 10.2652 5.91684L11.4062 2.44362C11.4932 2.17745 11.7371 2 12.0107 2H12.0128C12.2885 2 12.5303 2.18177 12.6173 2.44795L13.7392 5.93848C13.7816 6.07265 13.7816 6.21115 13.7392 6.34315L12.6173 9.84234C12.5303 10.1107 12.2885 10.2903 12.0128 10.2903L12.0149 10.2881ZM11.3172 6.12459L12.0128 8.26046L12.6915 6.1419L12.0086 4.01901L11.315 6.12459H11.3172Z" fill="#5A5E66"/>
<path d="M12.0127 22C11.6564 22 11.3425 21.7685 11.2301 21.4244L10.263 18.4683C10.2184 18.332 10.2205 18.187 10.263 18.055L11.404 14.571C11.4909 14.3048 11.7348 14.1274 12.0084 14.1274C12.2842 14.1274 12.5259 14.3091 12.6129 14.5753L13.7348 18.0788C13.7773 18.2108 13.7773 18.3515 13.7348 18.4813L12.7889 21.4222C12.6786 21.7685 12.3648 22 12.0084 22H12.0127ZM11.3149 18.2628L12.0106 20.3921L12.6892 18.2801L12.0063 16.1507L11.3128 18.2649L11.3149 18.2628Z" fill="#5A5E66"/>
<path d="M13.7943 11.062C13.6268 11.062 13.4635 10.995 13.3404 10.8673C13.1474 10.6682 13.1008 10.3652 13.2259 10.1142L14.876 6.8141C14.9375 6.69075 15.0393 6.58688 15.1644 6.52629L18.4072 4.90978C18.6554 4.78643 18.9502 4.83837 19.1432 5.03962C19.3362 5.24087 19.3807 5.54167 19.2556 5.79269L17.6055 9.07116C17.5462 9.19234 17.4444 9.29405 17.3235 9.35681L14.0785 10.995C13.9873 11.0404 13.8919 11.062 13.7943 11.062ZM15.7583 7.43517L14.753 9.44769L16.7275 8.45009L17.7328 6.45055L15.7583 7.43517ZM16.6639 8.57344L16.6617 8.57776V8.57344H16.6639Z" fill="#5A5E66"/>
<path d="M5.75401 19.3443C5.53981 19.3443 5.32772 19.2577 5.16865 19.0954C4.91839 18.8379 4.859 18.4462 5.02019 18.1216L6.41361 15.3322C6.47512 15.2089 6.57692 15.105 6.70205 15.0444L9.94489 13.4279C10.193 13.3046 10.4878 13.3565 10.6808 13.5577C10.8738 13.759 10.9184 14.0598 10.7932 14.3108L9.1432 17.5893C9.07957 17.7148 8.98201 17.8143 8.859 17.8749L6.12093 19.2577C6.00428 19.3162 5.87915 19.3443 5.75401 19.3443ZM7.29378 15.9533L6.28848 17.9658L8.26303 16.9682L9.26833 14.9687L7.29378 15.9533Z" fill="#5A5E66"/>
<path d="M10.2249 11.0558C10.1294 11.0558 10.0319 11.0342 9.94066 10.9887L6.71478 9.35492C6.59389 9.29432 6.49634 9.19478 6.43271 9.07143L4.77417 5.79513C4.64692 5.54411 4.69146 5.24115 4.88446 5.04206C5.07746 4.84081 5.37226 4.78887 5.6204 4.91222L8.85688 6.5244C8.98202 6.58716 9.07958 6.68454 9.1432 6.81005L10.7933 10.1102C10.9184 10.3612 10.8717 10.6641 10.6787 10.8632C10.5557 10.9887 10.3924 11.0558 10.2249 11.0558ZM7.31075 8.44604L9.26621 9.43715L8.26304 7.43112L6.30121 6.45299L7.31075 8.44604Z" fill="#5A5E66"/>
<path d="M18.263 19.3378C18.1379 19.3378 18.0127 19.3097 17.8961 19.2491L15.175 17.8706C15.0541 17.81 14.9544 17.7083 14.8908 17.585L13.2322 14.3108C13.105 14.0598 13.1495 13.7568 13.3425 13.5577C13.5355 13.3565 13.8303 13.3046 14.0785 13.4279L17.3149 15.0401C17.438 15.1028 17.5419 15.2046 17.6034 15.3301L18.9947 18.113C19.1559 18.4376 19.0965 18.8271 18.8462 19.0868C18.6872 19.2512 18.4751 19.3356 18.2609 19.3356L18.263 19.3378ZM15.7709 16.9661L17.7264 17.9572L16.7232 15.9511L14.7614 14.973L15.7709 16.9661Z" fill="#5A5E66"/>
<path d="M6.02977 13.9419C5.95978 13.9419 5.88766 13.9311 5.82192 13.9073L2.42849 12.7084C2.16762 12.6175 1.99584 12.3665 2.00008 12.0852C2.00432 11.8038 2.18247 11.5572 2.44546 11.4728L5.8919 10.3583C6.02128 10.3172 6.15914 10.3172 6.28851 10.3626L9.69466 11.5507C9.95553 11.6415 10.1294 11.8926 10.1252 12.1739C10.1231 12.4552 9.94493 12.7019 9.68194 12.7863L6.22701 13.9116C6.16338 13.9311 6.09763 13.9419 6.034 13.9419H6.02977ZM3.97886 12.1111L6.034 12.8361L8.13793 12.1523L6.07643 11.4338L3.97886 12.1111Z" fill="#5A5E66"/>
<path d="M17.9045 14.0809C17.8324 14.0809 17.7624 14.0679 17.6946 14.0441L14.3033 12.8474C14.0424 12.7565 13.8706 12.5055 13.8749 12.2242C13.8791 11.9429 14.0573 11.6962 14.3202 11.6118L17.7667 10.4973C17.8982 10.4562 18.0339 10.4562 18.1633 10.5016L21.5673 11.6767C21.8282 11.7676 22.0021 12.0164 22 12.2977C21.9979 12.5791 21.8197 12.8258 21.5567 12.9123L18.0997 14.0484C18.036 14.0701 17.9703 14.0787 17.9045 14.0787V14.0809ZM15.8558 12.2523L17.9088 12.9772L20.0127 12.2869L17.9533 11.575L15.8558 12.2523Z" fill="#5A5E66"/>
</svg>

<svg xmlns="http://www.w3.org/2000/svg" width="24" height="24" fill="none"><path fill="#5A5E66" d="M12.015 10.288a.64.64 0 0 1-.604-.446L10.265 6.33a.67.67 0 0 1 0-.413l1.141-3.473A.64.64 0 0 1 12.011 2h.002a.64.64 0 0 1 .604.448l1.122 3.49a.66.66 0 0 1 0 .405l-1.122 3.5a.64.64 0 0 1-.604.447zm-.698-4.163.696 2.135.678-2.118-.682-2.123-.694 2.106zM12.013 22a.825.825 0 0 1-.783-.576l-.967-2.956a.67.67 0 0 1 0-.413l1.141-3.484a.64.64 0 0 1 .604-.444.64.64 0 0 1 .605.448l1.122 3.504a.65.65 0 0 1 0 .402l-.946 2.941a.82.82 0 0 1-.78.578zm-.698-3.737.696 2.13.678-2.113-.683-2.13-.693 2.115zM13.794 11.062a.63.63 0 0 1-.454-.195.66.66 0 0 1-.114-.753l1.65-3.3a.64.64 0 0 1 .288-.288l3.243-1.616a.63.63 0 0 1 .736.13.66.66 0 0 1 .113.753l-1.65 3.278a.65.65 0 0 1-.283.286l-3.245 1.638a.6.6 0 0 1-.284.067m1.964-3.627-1.005 2.013 1.974-.998 1.006-2zm.906 1.138-.002.005v-.005zM5.754 19.344a.82.82 0 0 1-.585-.249.85.85 0 0 1-.149-.973l1.394-2.79a.64.64 0 0 1 .288-.288l3.243-1.616a.63.63 0 0 1 .736.13.66.66 0 0 1 .112.753l-1.65 3.278a.63.63 0 0 1-.284.286l-2.738 1.383a.8.8 0 0 1-.367.086m1.54-3.39-1.006 2.012 1.975-.998 1.005-2zM10.225 11.056a.64.64 0 0 1-.284-.067L6.715 9.355a.64.64 0 0 1-.282-.284L4.774 5.795a.66.66 0 0 1 .11-.753.63.63 0 0 1 .736-.13l3.237 1.612c.125.063.223.16.286.286l1.65 3.3a.66.66 0 0 1-.114.753.63.63 0 0 1-.454.193M7.31 8.446l1.955.991-1.003-2.006-1.962-.978zM18.263 19.338a.8.8 0 0 1-.367-.089l-2.721-1.378a.65.65 0 0 1-.284-.286l-1.659-3.274a.66.66 0 0 1 .11-.753.63.63 0 0 1 .736-.13l3.237 1.612a.65.65 0 0 1 .288.29l1.392 2.783a.855.855 0 0 1-.149.974.81.81 0 0 1-.585.249zm-2.492-2.372 1.955.991-1.003-2.006-1.962-.978zM6.03 13.942a.6.6 0 0 1-.208-.035l-3.394-1.199A.645.645 0 0 1 2 12.085a.65.65 0 0 1 .445-.612l3.447-1.115a.62.62 0 0 1 .397.005l3.406 1.188c.26.09.434.342.43.623a.64.64 0 0 1-.443.612l-3.455 1.126a.7.7 0 0 1-.193.03zm-2.051-1.83 2.055.724 2.104-.684-2.062-.718zM17.905 14.08a.6.6 0 0 1-.21-.036l-3.392-1.197a.645.645 0 0 1-.428-.623.65.65 0 0 1 .445-.612l3.447-1.115a.62.62 0 0 1 .396.005l3.404 1.175c.261.09.435.34.433.62a.65.65 0 0 1-.443.615L18.1 14.048a.6.6 0 0 1-.196.03zm-2.05-1.828 2.054.725 2.104-.69-2.06-.712z"/></svg>
